symbols/web/spatial_audio_off/materialsymbolsoutlined/spatial_audio_off_wght700grad200fill1_20px.svg

<svg xmlns="http://www.w3.org/2000/svg" height="20" width="20"><path d="m17.771 10.958-1.917-1.896q.792-.874 1.219-1.947.427-1.073.427-2.261 0-1.208-.458-2.302-.459-1.094-1.25-1.969l1.875-1.895q1.208 1.291 1.895 2.833.688 1.541.688 3.291 0 1.73-.635 3.303-.636 1.573-1.844 2.843ZM15 8.229l-1.917-1.917q.25-.312.386-.697.135-.386.135-.761 0-.396-.146-.781t-.396-.698L14.917 1.5q.645.688 1.031 1.573.385.885.385 1.823 0 .937-.354 1.771-.354.833-.979 1.562ZM7.833 9.833q-1.812 0-3.021-1.208-1.208-1.208-1.208-3.021 0-1.792 1.208-3 1.209-1.208 3.021-1.208 1.792 0 3 1.208 1.209 1.208 1.209 3 0 1.813-1.198 3.021T7.833 9.833ZM.229 18.312v-3.25q0-1.02.573-1.802.573-.781 1.24-1.093 1.104-.5 2.635-.917 1.531-.417 3.135-.417 1.584 0 3.136.396t2.656.896q.667.313 1.24 1.115t.573 1.822v3.25Z"/></svg>

<svg xmlns="http://www.w3.org/2000/svg" height="20" width="20"><path d="M17.771 10.958 15.854 9.062Q16.646 8.188 17.073 7.115Q17.5 6.042 17.5 4.854Q17.5 3.646 17.042 2.552Q16.583 1.458 15.792 0.583L17.667 -1.312Q18.875 -0.021 19.562 1.521Q20.25 3.062 20.25 4.812Q20.25 6.542 19.615 8.115Q18.979 9.688 17.771 10.958ZM15 8.229 13.083 6.312Q13.333 6 13.469 5.615Q13.604 5.229 13.604 4.854Q13.604 4.458 13.458 4.073Q13.312 3.688 13.062 3.375L14.917 1.5Q15.562 2.188 15.948 3.073Q16.333 3.958 16.333 4.896Q16.333 5.833 15.979 6.667Q15.625 7.5 15 8.229ZM7.833 9.833Q6.021 9.833 4.812 8.625Q3.604 7.417 3.604 5.604Q3.604 3.812 4.812 2.604Q6.021 1.396 7.833 1.396Q9.625 1.396 10.833 2.604Q12.042 3.812 12.042 5.604Q12.042 7.417 10.844 8.625Q9.646 9.833 7.833 9.833ZM0.229 18.312V15.062Q0.229 14.042 0.802 13.26Q1.375 12.479 2.042 12.167Q3.146 11.667 4.677 11.25Q6.208 10.833 7.812 10.833Q9.396 10.833 10.948 11.229Q12.5 11.625 13.604 12.125Q14.271 12.438 14.844 13.24Q15.417 14.042 15.417 15.062V18.312Z"/></svg>
